X:1
T:Chanson des cueilleuses de lentisques
T:  Chanson des cueilleuses de lentisques*
T:Maurice Ravel
T:IV.
T:acct de piano par
T:Cinq mélodies populaires grecques
T:Traduction française par M.D Calvocoressi
T:*Based on  Jenne Van Antwerpen's score
T:Jenne
T:Jenne
T:Jenne
C:Maurice Ravel
Z:Jenne
%%score 1 { ( 2 5 ) | ( 3 4 6 ) }
L:1/8
Q:1/4=60
M:3/4
K:A
V:1 treble nm="Chant"
V:2 treble nm="Piano"
V:5 treble 
V:3 bass 
V:4 bass 
V:6 bass 
V:1
"^Lent" z6 |!mp! (A7/2 B/ c>B ||[M:2/4] A>)B c^d | (c4- | c^d (3c/d/c/B) | A4 || %6
w: |O _ _ _|_ joie de mon|â-||me,|
[M:3/4] c4 (3c ed ||[M:2/4] c3/2A/4B/4 c c/B/ | A3 A | A4 | z4 | z4 | z2 z!p! A/B/ || %13
w: joie de mon *|cœur, tré- * sor qui *|m'est si|cher;|||joie de|
[M:3/4] c4 (3e2- e/d/ ||[M:2/4] c2- (3c A B ||[M:3/4] c2 ^d(3c/d/c/ B2 | A3 z z2 | d4 c A | %18
w: l'âme et * du|cœur _ toi que|j'aime ar- * * * dem-|ment|tu es plus|
 A3 B (3c2 c/B/ ||[M:2/4] A2 A2- | A2 z2 | z4 ||[M:3/4] z2 (A3 B | c2) Bc ed | c6 | ^d3 c/d/ B2 || %26
w: beau, plus beau qu'un *|an- ge.|_||O _|_ lors- que tu pa-|rais,|an- ge * si|
[M:2/4] A4- | A2 z2 ||[M:3/4] c4 (3c e d ||[M:2/4] c3/2 (A/4B/4) c (c/B/) | A4- | A4- | A2 z2 || %33
w: doux,||an- ge si *|doux de- * vant nos *|yeux.|_||
[M:3/4] z6 | z2 z2 z A/B/ | c4 e-e/d/ | cA/B/ c2 ^dc/d/ | (!^!BA) z4 | z6 | %39
w: |comme un|bel an- * ge|blond, sous le clair so- * *|leil, *||
!mf! (d3 (3c/d/e/ c) z/ A/ ||[M:2/4]!p! A4- | (3A c c c3/2 B/ ||[M:3/4] A4- A z ||[M:2/4] z4 || %44
w: Hé- * * * las! tous|nos|_ pau- vres cœurs sou-|pi- rent!||
[M:3/4] z6 ||[M:2/4] z4 | z4 |] %47
w: |||
V:2
 z2!mp! [A,E]2 [Ae]2- | [Ae]2 [ae']4- ||[M:2/4] [ae']2 [A,E]2- | [A,E]2 [Ae]2 | [ae']4- | %5
 [ae']2 [Ae]2- ||[M:3/4] [Ae]2 [Ae]4- ||[M:2/4] [Ae]2 [ae']2- | [ae']2 [Ae]2- | %9
 [Ae]2[K:bass] (!>!F,2 | !>!C4-) | C2[K:treble]!p! (!>!F2 | !>!c4) ||[M:3/4] z2 (!>!f2 !>!c'2) || %14
[M:2/4] z2 [cae']2 ||[M:3/4][K:bass] !>!F,2 !>!C2 z2 | z2 (!>!F,2 !>!C2) | z2[K:treble] (F2 c2) | %18
 z2 (!arpeggio![Ff]2 !arpeggio![cc']2) ||[M:2/4] z2[K:bass] (!>!F,2 | !>!C2)[K:treble] z ^d | %21
 (3c/^d/c/B A2 ||[M:3/4] z2 z2[K:bass] (3(E,A,E | (3A,E,A,) z2 z2 |[K:treble] (3cae' (3aea (3e'ae | %25
 z2 (3eAE z2 ||[M:2/4][K:bass] z2 (!>!F,2 | !>!C2) (3EA,E, || %28
[M:3/4][K:treble] (3(A,EA (3eAE (3A,EA) ||[M:2/4] (3(eAE (3Aea) | (3(e'ae (3aeA) | %31
 (3(eAE) z!pp! ^d | (3c/^d/c/B z2 ||[M:3/4] x2[K:bass] (3E,A,E[K:treble] x2 | e'2 z4 | z6 | z6 | %37
 z2!<(! (!>!A,2 !>!E2) | z2 (!>!C2 !>!G2)!<)! |!mf! z2 (!>!F2 !>!c2) || %40
[M:2/4] z2 (!arpeggio!!>![Ff]2 | !arpeggio![cc']4) ||[M:3/4]!pp! z2[K:bass] (!>!F,2 !>!C2) || %43
[M:2/4][K:treble] (5:4:6(z (^d2 (3c/d/c/B) ||[M:3/4] A) z z2 z2 ||[M:2/4]!ppp! (!>!f2 !>!c'2-) | %46
 c'4 |] %47
V:3
 z2 [A,,E,]2 [E,A,E]2- | [E,A,E]2[K:treble] [EAe]4- ||[M:2/4] [EAe]2[K:bass] E,2 | %3
 [A,,E,]2 [E,A,E]2 | [EAe]4- | [EAe]2[K:bass] [E,A,E]2 ||[M:3/4] [A,,E,]2 [E,A,E]4- || %7
[M:2/4] [E,A,E]2[K:treble] [EAe]2- | [EAe]2[K:bass] [E,A,E]2 | [A,,,E,,]2 [A,,E,]2- | %10
 [A,,E,]2 [E,A,E]2 | [A,,E,]2 [A,E]2- | [A,E]2[K:treble] [EAe]2 ||[M:3/4] [A,E]2 [EAe]4- || %14
[M:2/4] [EAe]2 [EA]2- ||[M:3/4] [EA]2 z2 [EAe]2 | z2 [A,E]4 | !arpeggio![E,A,DF]6 | [EAd]4 [Ge]2 || %19
[M:2/4][K:bass] [A,,E,]2 [A,E]2- | [A,E]2 [E,B,]2- | [E,B,]2 [E,A,]2 || %22
[M:3/4] (3(A,,,E,,A,, (3E,A,,E,,) z2 | z2[K:treble] (3(EAe (3AEA) | z6 | %25
 (3AEA, z2[K:bass] (3A,E,A,, ||[M:2/4][I:staff -1] (3(A,,,[I:staff +1]E,,A,, (3E,A,E,) | %27
 (3A,,E,A, z2 ||[M:3/4] z2 (!>!G,,2 !>!C,2) ||[M:2/4] z4 | z2 (!>!A,,2 | !>!E,2-) B,2- | %32
 [E,B,]2[K:treble] (3AEA, ||[M:3/4][K:bass] (3A,,,E,,A,, x2[K:treble] (3Aea | z6 | z6 | z6 | %37
!mp! z6 |[K:bass] [F,C]6 | z2[K:treble] [DA]4 ||[M:2/4][K:bass]!p!!>(! z2[K:treble] [EAd]2 | %41
 [EAd]4!>)! ||[M:3/4] (3F,CF (3cFC- (3CAc- ||[M:2/4] [cg]4 ||[M:3/4] (3Fcf (3c'fc (3fc'f' || %45
[M:2/4][K:treble] [Ae]4- | [Ae]4 |] %47
V:4
 x6 | x2[K:treble] x4 ||[M:2/4] x2[K:bass] x2 | x4 | x4 | x2[K:bass] x2 ||[M:3/4] x6 || %7
[M:2/4] x2[K:treble] x2 | x2[K:bass] x2 | x4 | x4 | x4 | x2[K:treble] x2 ||[M:3/4] x6 || %14
[M:2/4] x4 ||[M:3/4] x6 | [A,,E,]4 z2 | x6 | x6 ||[M:2/4][K:bass] x4 | x4 | x4 ||[M:3/4] x6 | %23
 x2[K:treble] x4 | x6 | x4[K:bass] x2 ||[M:2/4] x4 | x4 ||[M:3/4] x6 ||[M:2/4] x4 | x4 | %31
 x2 (3E,A,E | x2[K:treble] x2 ||[M:3/4][K:bass] x4[K:treble] x2 | x6 | x6 | x6 | x6 |[K:bass] x6 | %39
 [B,,F,]6[K:treble] ||[M:2/4][K:bass] [E,,B,,]4[K:treble] | z2!ppp![I:staff -1] E2 ||[M:3/4] x6 || %43
[M:2/4] x4 ||[M:3/4] x6 ||[M:2/4][I:staff +1][K:treble] x4 | x4 |] %47
V:5
 x6 | x6 ||[M:2/4] x4 | x4 | x4 | x4 ||[M:3/4] x6 ||[M:2/4] x4 | x4 | x2[K:bass] x2 | x4 | %11
 x2[K:treble] x2 | x4 ||[M:3/4] x6 ||[M:2/4] x4 ||[M:3/4][K:bass] x6 | x6 | x2[K:treble] x4 | x6 || %19
[M:2/4] x2[K:bass] x2 | z2[K:treble] [^DG]2- | [DG]2 E2 ||[M:3/4] x4[K:bass] x2 | x6 | %24
[K:treble] x6 | x6 ||[M:2/4][K:bass] x4 | x4 ||[M:3/4][K:treble] x6 ||[M:2/4] x4 | x4 | x4 | %32
 G z x2 ||[M:3/4] x2[K:bass] x2[K:treble] x2 | x6 | x6 | x6 | x6 | x6 | x6 ||[M:2/4] x4 | %41
 z2!8va(! [e'e'']2!8va)! ||[M:3/4] x2[K:bass] x4 ||[M:2/4][K:treble] x4 ||[M:3/4] x6 || %45
[M:2/4] c4- | c4 |] %47
V:6
 x6 | x2[K:treble] x4 ||[M:2/4] x2[K:bass] x2 | x4 | x4 | x2[K:bass] x2 ||[M:3/4] x6 || %7
[M:2/4] x2[K:treble] x2 | x2[K:bass] x2 | x4 | x4 | x4 | x2[K:treble] x2 ||[M:3/4] x6 || %14
[M:2/4] x4 ||[M:3/4] x6 | x6 | x6 | x6 ||[M:2/4][K:bass] x4 | x4 | x4 ||[M:3/4] x6 | %23
 x2[K:treble] x4 | x6 | x4[K:bass] x2 ||[M:2/4] x4 | x4 ||[M:3/4] x6 ||[M:2/4] x4 | x4 | x2 E,2- | %32
 x2[K:treble] x2 ||[M:3/4][K:bass] x4[K:treble] x2 | x6 | x6 | x6 | x6 |[K:bass] x6 | %39
 x2[K:treble] x4 ||[M:2/4][K:bass] x2[K:treble] x2 | x4 ||[M:3/4] x6 ||[M:2/4] x4 ||[M:3/4] x6 || %45
[M:2/4][K:treble] x4 | x4 |] %47

